source/img/what-we-do/2.svg

<svg width="171" height="132" viewBox="0 0 171 132" fill="none" xmlns="http://www.w3.org/2000/svg">
<path d="M171 66.5C170.993 78.5373 167.645 90.3405 161.32 100.616C154.996 110.892 145.941 119.244 135.147 124.756C134.661 125.008 134.172 125.251 133.679 125.483L133.577 125.534L133.226 125.701C132.935 125.842 132.65 125.973 132.354 126.105C130.51 126.943 128.617 127.696 126.678 128.363C125.577 128.743 124.464 129.095 123.34 129.419L121.995 129.787C107.027 133.739 91.1354 132.368 77.081 125.913C76.5052 125.645 75.9294 125.372 75.3638 125.089L74.3446 124.584C64.2575 119.344 55.7007 111.618 49.498 102.15C48.8457 101.163 48.2241 100.153 47.633 99.1186C47.1064 98.2194 46.5968 97.3085 46.1042 96.3857C41.3168 87.1395 38.8272 76.8931 38.8428 66.5C38.8428 65.2741 38.8768 64.055 38.9448 62.8426C39.9001 45.8104 47.5204 29.8196 60.1848 18.2713C72.8493 6.72297 89.5587 0.528265 106.759 1.00471C123.96 1.48115 140.294 8.59114 152.288 20.8225C164.283 33.0539 170.99 49.4415 170.985 66.5H171Z" fill="url(#paint0_linear)"/>
<path d="M91.9449 64.1711C91.9449 64.1711 77.1674 57.2251 75.8832 47.6673C74.5991 38.1096 75.5011 28.9761 82.8644 26.42C82.8644 26.42 87.5219 11.6994 104.032 17.6149C120.542 23.5304 117.938 41.2921 126.963 43.4189C135.987 45.5456 152.839 36.589 156.054 47.5158C159.269 58.4426 148.696 57.7757 141.669 67.0506C134.642 76.3255 145.496 81.1953 143.508 87.5806C141.521 93.9659 134.015 98.3558 134.015 98.3558L91.9449 64.1711Z" fill="url(#paint1_linear)"/>
<path d="M71.71 85.1357L75.8833 96.3857H76.3369L82.8645 67.0507C78.742 70.6323 71.71 85.1357 71.71 85.1357Z" fill="url(#paint2_linear)"/>
<path d="M64.3821 100.654L61.7374 101.973C58.4558 103.923 53.5537 103.367 53.5537 103.367C56.2035 106.322 71.1237 109.667 75.3175 109.581L76.092 99.1136H66.7975L64.3821 100.654Z" fill="url(#paint3_linear)"/>
<path d="M133.679 125.468L133.577 125.519L133.226 125.685C132.935 125.827 132.65 125.958 132.354 126.09C130.51 126.928 128.617 127.681 126.678 128.348C125.577 128.728 124.464 129.08 123.34 129.403L121.995 129.772C107.027 133.724 91.1355 132.353 77.0811 125.898C76.5053 125.63 75.9295 125.357 75.3639 125.074L74.3447 124.569C74.4874 120.235 74.7065 115.047 75.0275 109.576C75.2314 106.156 75.4811 102.625 75.7766 99.1187C75.8531 98.2043 75.9346 97.295 76.0161 96.3857C77.2187 83.4636 79.1449 71.481 82.2329 67.672L82.2787 67.6215C82.6708 67.0866 83.2239 66.6887 83.8584 66.4849C88.3172 65.4341 91.4612 65.0805 91.9555 64.1712C92.4498 63.2619 91.9555 61.4736 91.9555 61.4736L92.8421 61.3524C94.1314 61.1604 96.6333 60.7563 99.0029 60.1501C99.0178 60.1547 99.0338 60.1547 99.0487 60.1501C101.143 59.6096 103.125 58.9124 104.093 58.0739L106.081 63.3124C106.081 63.3124 121.026 61.4383 126.861 67.0709C126.897 67.0971 126.929 67.1277 126.958 67.1618C127.019 67.2169 127.077 67.276 127.131 67.3386C127.478 67.7025 127.787 68.1003 128.053 68.5258C129.954 71.5568 131.299 83.7212 132.232 96.9162C132.446 99.9472 132.64 103.079 132.808 106.146C133.195 113.228 133.485 120.088 133.679 125.468Z" fill="url(#paint4_linear)"/>
<path opacity="0.15" d="M133.577 125.534L133.226 125.701C132.935 125.842 132.65 125.973 132.355 126.105C130.51 126.943 128.618 127.696 126.678 128.363C125.577 128.743 124.465 129.095 123.34 129.419C116.456 122.149 113.725 112.713 113.725 112.713L132.798 106.146L133.577 125.534Z" fill="black"/>
<path d="M126.856 67.0507C133.76 73.7694 135.263 87.8737 133.99 98.371C132.716 108.868 130.351 118.699 125.439 118.396C120.527 118.093 103.527 106.403 96.959 100.028L100.796 92.7283L114.677 98.462V83.1807L126.856 67.0507Z" fill="url(#paint5_linear)"/>
<path d="M126.856 67.0507C133.76 73.7694 135.263 87.8737 133.99 98.371C132.716 108.868 130.351 118.699 125.439 118.396C120.527 118.093 103.527 106.403 96.959 100.028L100.796 92.7283L114.677 98.462V83.1807L126.856 67.0507Z" fill="url(#paint6_linear)"/>
<g filter="url(#filter0_d)">
<path d="M91.1453 96.3856H27.4541V99.1186H91.1453V96.3856Z" fill="url(#paint7_linear)"/>
<path d="M63.4347 62.8425H15L27.4539 96.3856H75.8835L63.4347 62.8425Z" fill="url(#paint8_linear)"/>
</g>
<path d="M41.9971 99.1187C41.9971 99.1187 50.354 103.266 55.6638 103.367C60.9735 103.468 66.803 99.1187 66.803 99.1187H41.9971Z" fill="url(#paint9_linear)"/>
<path d="M100.796 92.7283C100.796 92.7283 93.4483 89.0507 90.2839 88.6465C87.1194 88.2424 77.2949 96.3857 77.2949 96.3857H91.1552L96.9745 100.028L100.796 92.7283Z" fill="url(#paint10_linear)"/>
<path d="M103.471 49.789C103.508 52.5552 103.712 55.3167 104.083 58.0586C100.796 59.8924 96.9488 60.8775 92.8315 61.3574L92.592 58.0586L92.4493 56.038V55.9723C91.6556 55.9546 90.8732 55.783 90.1461 55.4671C85.1726 53.3404 84.1025 42.944 84.1025 42.944C86.095 42.8632 88.6887 39.3018 88.6887 39.3018C90.141 41.5043 96.8775 45.7578 100.786 44.6161C104.694 43.4744 104.389 40.7415 104.389 40.7415C105.095 41.037 105.707 41.5193 106.156 42.1357C106.605 42.7522 106.875 43.4791 106.936 44.2372C107.145 46.9045 103.471 49.789 103.471 49.789Z" fill="url(#paint11_linear)"/>
<path opacity="0.15" d="M100.134 52.7241C99.212 54.2699 95.0386 56.7301 92.5978 58.0688L92.4551 56.0481C92.6079 56.0481 92.7557 55.9976 92.8984 55.9673C94.8911 55.6177 96.8038 54.9143 98.5444 53.8911C98.5652 53.883 98.5843 53.871 98.6005 53.8557C99.1236 53.5491 99.6136 53.1903 100.063 52.7847L100.134 52.7241Z" fill="black"/>
<path opacity="0.15" d="M108.949 96.1029L119.762 100.488L114.667 96.8455V83.2059C114.667 83.2059 113.072 95.0572 108.949 96.1029Z" fill="black"/>
<defs>
<filter id="filter0_d" x="0" y="47.8425" width="116.145" height="76.2761" filterUnits="userSpaceOnUse" color-interpolation-filters="sRGB">
<feFlood flood-opacity="0" result="BackgroundImageFix"/>
<feColorMatrix in="SourceAlpha" type="matrix" values="0 0 0 0 0 0 0 0 0 0 0 0 0 0 0 0 0 0 127 0" result="hardAlpha"/>
<feOffset dx="5" dy="5"/>
<feGaussianBlur stdDeviation="10"/>
<feColorMatrix type="matrix" values="0 0 0 0 0 0 0 0 0 0 0 0 0 0 0 0 0 0 0.2 0"/>
<feBlend mode="normal" in2="BackgroundImageFix" result="effect1_dropShadow"/>
<feBlend mode="normal" in="SourceGraphic" in2="effect1_dropShadow" result="shape"/>
</filter>
<linearGradient id="paint0_linear" x1="105.193" y1="8.09361" x2="102.971" y2="137.225" gradientUnits="userSpaceOnUse">
<stop stop-color="white" stop-opacity="0"/>
<stop offset="1" stop-color="#64B5F6" stop-opacity="0.6"/>
</linearGradient>
<linearGradient id="paint1_linear" x1="75.3992" y1="57.2807" x2="156.655" y2="57.2807" gradientUnits="userSpaceOnUse">
<stop stop-color="#EF9A9A"/>
<stop offset="1" stop-color="#D81B60"/>
</linearGradient>
<linearGradient id="paint2_linear" x1="76.6834" y1="82.8826" x2="74.2742" y2="110.514" gradientUnits="userSpaceOnUse">
<stop stop-color="#7E57C2"/>
<stop offset="1" stop-color="#4527A0"/>
</linearGradient>
<linearGradient id="paint3_linear" x1="6813.02" y1="2527.43" x2="6789.49" y2="3103.43" gradientUnits="userSpaceOnUse">
<stop stop-color="#7E57C2"/>
<stop offset="1" stop-color="#4527A0"/>
</linearGradient>
<linearGradient id="paint4_linear" x1="20341.2" y1="14858" x2="24468.7" y2="22492.9" gradientUnits="userSpaceOnUse">
<stop stop-color="#7E57C2"/>
<stop offset="1" stop-color="#4527A0"/>
</linearGradient>
<linearGradient id="paint5_linear" x1="13960.4" y1="9770.53" x2="17624.5" y2="15926.1" gradientUnits="userSpaceOnUse">
<stop stop-color="#7E57C2"/>
<stop offset="1" stop-color="#4527A0"/>
</linearGradient>
<linearGradient id="paint6_linear" x1="118.758" y1="72.7489" x2="113.038" y2="119.812" gradientUnits="userSpaceOnUse">
<stop offset="0.14" stop-color="#7E57C2" stop-opacity="0"/>
<stop offset="0.26" stop-color="#724DBB" stop-opacity="0.21"/>
<stop offset="0.48" stop-color="#5F3DAF" stop-opacity="0.55"/>
<stop offset="0.66" stop-color="#5131A7" stop-opacity="0.79"/>
<stop offset="0.81" stop-color="#482AA2" stop-opacity="0.94"/>
<stop offset="0.91" stop-color="#4527A0"/>
</linearGradient>
<linearGradient id="paint7_linear" x1="27.4541" y1="97.7496" x2="91.1454" y2="97.7496" gradientUnits="userSpaceOnUse">
<stop stop-color="#D2D4D5"/>
<stop offset="1" stop-color="#AAACAE"/>
</linearGradient>
<linearGradient id="paint8_linear" x1="537.989" y1="4198.71" x2="4142.02" y2="8332.05" gradientUnits="userSpaceOnUse">
<stop stop-color="#D2D4D5"/>
<stop offset="1" stop-color="#AAACAE"/>
</linearGradient>
<linearGradient id="paint9_linear" x1="43.5767" y1="94.557" x2="63.884" y2="103.338" gradientUnits="userSpaceOnUse">
<stop stop-color="#FFF8E1"/>
<stop offset="1" stop-color="#FFCC80"/>
</linearGradient>
<linearGradient id="paint10_linear" x1="7875.06" y1="2941.73" x2="8393.29" y2="3509.97" gradientUnits="userSpaceOnUse">
<stop stop-color="#FFF8E1"/>
<stop offset="1" stop-color="#FFCC80"/>
</linearGradient>
<linearGradient id="paint11_linear" x1="8044.47" y1="3227.22" x2="8499.41" y2="4088.69" gradientUnits="userSpaceOnUse">
<stop stop-color="#FFF8E1"/>
<stop offset="1" stop-color="#FFCC80"/>
</linearGradient>
</defs>
</svg>

<svg width="171" height="132" fill="none" xmlns="http://www.w3.org/2000/svg"><path d="M171 66.5a65.14 65.14 0 0 1-9.68 34.12 65.91 65.91 0 0 1-27.64 24.86l-.1.05-.35.17-.88.4a64.15 64.15 0 0 1-9.01 3.32l-1.34.37a66.8 66.8 0 0 1-46.64-4.7l-1.02-.5a66.14 66.14 0 0 1-28.24-28.2 64.78 64.78 0 0 1-7.16-33.55 65.27 65.27 0 0 1 21.24-44.57A66.4 66.4 0 0 1 106.76 1a66.34 66.34 0 0 1 45.53 19.82 65.2 65.2 0 0 1 18.7 45.68h.01Z" fill="url(#a)"/><path d="M91.94 64.17s-14.77-6.94-16.06-16.5c-1.28-9.56-.38-18.7 6.98-21.25 0 0 4.66-14.72 21.17-8.8 16.51 5.91 13.9 23.67 22.93 25.8 9.03 2.13 25.88-6.83 29.1 4.1 3.2 10.92-7.36 10.26-14.4 19.53-7.02 9.28 3.84 14.15 1.85 20.53-1.99 6.39-9.5 10.78-9.5 10.78L91.94 64.17Z" fill="url(#b)"/><path d="m71.71 85.14 4.17 11.25h.46l6.52-29.34c-4.12 3.58-11.15 18.09-11.15 18.09Z" fill="url(#c)"/><path d="m64.38 100.65-2.64 1.32c-3.28 1.95-8.19 1.4-8.19 1.4 2.65 2.95 17.57 6.3 21.77 6.21l.77-10.47h-9.3l-2.4 1.54Z" fill="url(#d)"/><path d="m133.68 125.47-.1.05-.35.17-.88.4a64.15 64.15 0 0 1-9.01 3.31l-1.34.37a66.8 66.8 0 0 1-46.64-4.7l-1.02-.5c.15-4.33.37-9.52.69-15 .2-3.41.45-6.94.75-10.45.07-.92.15-1.83.24-2.73 1.2-12.93 3.12-24.9 6.21-28.72l.05-.05c.4-.53.94-.93 1.58-1.14 4.46-1.05 7.6-1.4 8.1-2.3.49-.92 0-2.7 0-2.7l.88-.13a64.62 64.62 0 0 0 6.2-1.2c2.1-.54 4.08-1.24 5.05-2.08l2 5.24s14.94-1.87 20.77 3.76l.1.1a7.42 7.42 0 0 1 1.1 1.36c1.9 3.03 3.24 15.2 4.17 28.39.22 3.03.41 6.16.58 9.23.38 7.08.68 13.94.87 19.32Z" fill="url(#e)"/><path opacity=".15" d="m133.58 125.53-.35.17-.88.4a64.17 64.17 0 0 1-9.01 3.32c-6.88-7.27-9.62-16.7-9.62-16.7l19.08-6.57.78 19.38Z" fill="#000"/><path d="M126.86 67.05c6.9 6.72 8.4 20.82 7.13 31.32-1.27 10.5-3.64 20.33-8.55 20.03-4.91-.3-21.91-12-28.48-18.37l3.84-7.3 13.88 5.73V83.18l12.18-16.13Z" fill="url(#f)"/><path d="M126.86 67.05c6.9 6.72 8.4 20.82 7.13 31.32-1.27 10.5-3.64 20.33-8.55 20.03-4.91-.3-21.91-12-28.48-18.37l3.84-7.3 13.88 5.73V83.18l12.18-16.13Z" fill="url(#g)"/><g filter="url(#h)"><path d="M91.15 96.39h-63.7v2.73h63.7v-2.73Z" fill="url(#i)"/><path d="M63.43 62.84H15L27.45 96.4h48.43L63.43 62.84Z" fill="url(#j)"/></g><path d="M42 99.12s8.35 4.15 13.66 4.25c5.31.1 11.14-4.25 11.14-4.25H42Z" fill="url(#k)"/><path d="M100.8 92.73s-7.35-3.68-10.52-4.08c-3.16-.4-12.99 7.74-12.99 7.74h13.87l5.81 3.64 3.83-7.3Z" fill="url(#l)"/><path d="M103.47 49.79c.04 2.77.24 5.53.61 8.27-3.28 1.83-7.13 2.82-11.25 3.3l-.24-3.3-.14-2.02v-.07a6.12 6.12 0 0 1-2.3-.5c-4.98-2.13-6.05-12.53-6.05-12.53 2-.08 4.59-3.64 4.59-3.64 1.45 2.2 8.19 6.46 12.1 5.32 3.9-1.15 3.6-3.88 3.6-3.88a4.18 4.18 0 0 1 2.55 3.5c.2 2.66-3.47 5.55-3.47 5.55Z" fill="url(#m)"/><path opacity=".15" d="M100.13 52.72c-.92 1.55-5.1 4.01-7.53 5.35l-.14-2.02c.15 0 .3-.05.44-.08a16.9 16.9 0 0 0 5.7-2.11 8.9 8.9 0 0 0 1.46-1.08l.07-.06ZM108.95 96.1l10.81 4.39-5.1-3.64V83.2s-1.59 11.85-5.71 12.9Z" fill="#000"/><defs><linearGradient id="a" x1="105.19" y1="8.09" x2="102.97" y2="137.22" gradientUnits="userSpaceOnUse"><stop stop-color="#fff" stop-opacity="0"/><stop offset="1" stop-color="#64B5F6" stop-opacity=".6"/></linearGradient><linearGradient id="b" x1="75.4" y1="57.28" x2="156.66" y2="57.28" gradientUnits="userSpaceOnUse"><stop stop-color="#EF9A9A"/><stop offset="1" stop-color="#D81B60"/></linearGradient><linearGradient id="c" x1="76.68" y1="82.88" x2="74.27" y2="110.51" gradientUnits="userSpaceOnUse"><stop stop-color="#7E57C2"/><stop offset="1" stop-color="#4527A0"/></linearGradient><linearGradient id="d" x1="6813.02" y1="2527.43" x2="6789.49" y2="3103.43" gradientUnits="userSpaceOnUse"><stop stop-color="#7E57C2"/><stop offset="1" stop-color="#4527A0"/></linearGradient><linearGradient id="e" x1="20341.2" y1="14858" x2="24468.7" y2="22492.9" gradientUnits="userSpaceOnUse"><stop stop-color="#7E57C2"/><stop offset="1" stop-color="#4527A0"/></linearGradient><linearGradient id="f" x1="13960.4" y1="9770.53" x2="17624.5" y2="15926.1" gradientUnits="userSpaceOnUse"><stop stop-color="#7E57C2"/><stop offset="1" stop-color="#4527A0"/></linearGradient><linearGradient id="g" x1="118.76" y1="72.75" x2="113.04" y2="119.81" gradientUnits="userSpaceOnUse"><stop offset=".14" stop-color="#7E57C2" stop-opacity="0"/><stop offset=".26" stop-color="#724DBB" stop-opacity=".21"/><stop offset=".48" stop-color="#5F3DAF" stop-opacity=".55"/><stop offset=".66" stop-color="#5131A7" stop-opacity=".79"/><stop offset=".81" stop-color="#482AA2" stop-opacity=".94"/><stop offset=".91" stop-color="#4527A0"/></linearGradient><linearGradient id="i" x1="27.45" y1="97.75" x2="91.15" y2="97.75" gradientUnits="userSpaceOnUse"><stop stop-color="#D2D4D5"/><stop offset="1" stop-color="#AAACAE"/></linearGradient><linearGradient id="j" x1="537.99" y1="4198.71" x2="4142.02" y2="8332.05" gradientUnits="userSpaceOnUse"><stop stop-color="#D2D4D5"/><stop offset="1" stop-color="#AAACAE"/></linearGradient><linearGradient id="k" x1="43.58" y1="94.56" x2="63.88" y2="103.34" gradientUnits="userSpaceOnUse"><stop stop-color="#FFF8E1"/><stop offset="1" stop-color="#FFCC80"/></linearGradient><linearGradient id="l" x1="7875.06" y1="2941.73" x2="8393.29" y2="3509.97" gradientUnits="userSpaceOnUse"><stop stop-color="#FFF8E1"/><stop offset="1" stop-color="#FFCC80"/></linearGradient><linearGradient id="m" x1="8044.47" y1="3227.22" x2="8499.41" y2="4088.69" gradientUnits="userSpaceOnUse"><stop stop-color="#FFF8E1"/><stop offset="1" stop-color="#FFCC80"/></linearGradient><filter id="h" x="0" y="47.84" width="116.14" height="76.28" filterUnits="userSpaceOnUse" color-interpolation-filters="sRGB"><feFlood flood-opacity="0" result="BackgroundImageFix"/><feColorMatrix in="SourceAlpha" values="0 0 0 0 0 0 0 0 0 0 0 0 0 0 0 0 0 0 127 0" result="hardAlpha"/><feOffset dx="5" dy="5"/><feGaussianBlur stdDeviation="10"/><feColorMatrix values="0 0 0 0 0 0 0 0 0 0 0 0 0 0 0 0 0 0 0.2 0"/><feBlend in2="BackgroundImageFix" result="effect1_dropShadow"/><feBlend in="SourceGraphic" in2="effect1_dropShadow" result="shape"/></filter></defs></svg>
